X:927
T:Reel of Bogie, The
R:reel
H:See also #770 and "Old Cuffe Street", #172
H:Second part also played single
Z:id:hn-reel-927
M:C|
K:Edor
BE~E2 dEcE | dBAF DEFA | BE~E2 dEcE | EFAF ~E2FA |
BE~E2 dEcE | EFAF DEFA | BGBd cABc | ~d3A BGEC ||
DEFA ~d3c | (3Bcd Ad BF~F2 | DEFA dfed | (3Bcd AF EDCE |
DEFA dcde | fd~d2 defg | gfge fdec | dBAF EAFE |
DEFA ~d3c | BA~A2 BFAF | DEFA dfed | (3Bcd AF EDCE |
DEFA ~d3e | fd~d2 defg | gfge fdec | dBAF EGFA ||

